; generated by Slic3r 1.33.8-prusa3d-win64 on 2017-04-09 at 10:16:57

; external perimeters extrusion width = 0.40mm
; perimeters extrusion width = 0.67mm
; infill extrusion width = 0.67mm
; solid infill extrusion width = 0.67mm
; top infill extrusion width = 0.67mm

M107
M190 S70 ; set bed temperature and wait for it to be reached
M104 S190 ; set temperature
G28 ; home all axes
G1 Z5 F5000 ; lift nozzle

M109 S190 ; set temperature and wait for it to be reached
G21 ; set units to millimeters
G90 ; use absolute coordinates
M82 ; use absolute distances for extrusion
G92 E0
G1 E-4.00000 F2400.00000
G92 E0
G1 Z2.000 F7800.000
G1 X0.000 Y14.601 F7800.000
G1 Z0.300 F7800.000
G1 E4.00000 F2400.00000
G1 F1800
G1 X-5.160 Y14.599 E4.33785
G1 X-5.994 Y14.558 E4.39250
G1 X-6.643 Y14.485 E4.43526
G1 X-7.229 Y14.390 E4.47409
G1 X-7.702 Y14.289 E4.50575
G1 X-8.387 Y14.109 E4.55211
G1 X-8.935 Y13.933 E4.58985
G1 X-10.046 Y13.483 E4.66829
G1 X-11.065 Y12.951 E4.74358
G1 X-11.492 Y12.687 E4.77642
G1 X-12.138 Y12.247 E4.82759
G1 X-12.546 Y11.933 E4.86134
G1 X-13.133 Y11.438 E4.91161
G1 X-14.025 Y10.551 E4.99391
G1 X-14.528 Y9.963 E5.04460
G1 X-14.838 Y9.568 E5.07745
G1 X-15.257 Y8.979 E5.12481
G1 X-15.684 Y8.300 E5.17728
G1 X-15.928 Y7.872 E5.20959
G1 X-16.279 Y7.189 E5.25981
G1 X-16.791 Y5.998 E5.34469
G1 X-17.064 Y5.223 E5.39852
G1 X-17.246 Y4.620 E5.43973
G1 X-17.478 Y3.704 E5.50159
G1 X-17.645 Y2.856 E5.55821
G1 X-17.829 Y1.504 E5.64751
G1 X-17.897 Y0.543 E5.71062
G1 X-17.916 Y-0.361 E5.76981
G1 X-17.899 Y-1.139 E5.82077
G1 X-17.852 Y-1.863 E5.86823
G1 X-17.694 Y-3.195 E5.95602
G1 X-17.556 Y-3.972 E6.00773
G1 X-17.354 Y-4.854 E6.06698
G1 X-16.993 Y-6.063 E6.14955
G1 X-16.725 Y-6.801 E6.20094
G1 X-16.381 Y-7.604 E6.25819
G1 X-16.021 Y-8.334 E6.31144
G1 X-15.635 Y-9.014 E6.36264
G1 X-15.364 Y-9.448 E6.39613
G1 X-14.896 Y-10.124 E6.44997
G1 X-14.383 Y-10.774 E6.50420
G1 X-13.877 Y-11.341 E6.55394
G1 X-13.496 Y-11.729 E6.58949
G1 X-12.942 Y-12.238 E6.63880
G1 X-12.270 Y-12.779 E6.69527
G1 X-11.824 Y-13.102 E6.73132
G1 X-11.182 Y-13.515 E6.78130
G1 X-10.543 Y-13.869 E6.82915
G1 X-9.996 Y-14.139 E6.86907
G1 X-9.293 Y-14.434 E6.91896
G1 X-8.803 Y-14.610 E6.95306
G1 X-8.116 Y-14.818 E7.00008
G1 X-7.376 Y-14.994 E7.04983
G1 X-6.602 Y-15.123 E7.10124
G1 X-6.016 Y-15.189 E7.13980
G1 X-5.280 Y-15.229 E7.18812
G1 X5.190 Y-15.231 E7.87356
G1 X6.252 Y-15.167 E7.94324
G1 X7.303 Y-15.008 E8.01282
G1 X8.204 Y-14.794 E8.07344
G1 X9.249 Y-14.451 E8.14545
G1 X9.980 Y-14.146 E8.19727
G1 X10.535 Y-13.873 E8.23780
G1 X11.240 Y-13.479 E8.29062
G1 X11.984 Y-12.991 E8.34893
G1 X12.645 Y-12.487 E8.40334
G1 X13.108 Y-12.090 E8.44328
G1 X13.703 Y-11.524 E8.49705
G1 X14.325 Y-10.843 E8.55739
G1 X14.885 Y-10.138 E8.61635
G1 X15.352 Y-9.465 E8.66996
G1 X15.649 Y-8.991 E8.70661
G1 X16.075 Y-8.230 E8.76366
G1 X16.440 Y-7.477 E8.81847
G1 X16.758 Y-6.716 E8.87251
G1 X17.068 Y-5.842 E8.93319
G1 X17.308 Y-5.028 E8.98873
G1 X17.557 Y-3.966 E9.06019
G1 X17.732 Y-2.944 E9.12809
G1 X17.847 Y-1.939 E9.19428
G1 X17.914 Y-0.649 E9.27882
G1 X17.900 Y0.479 E9.35268
G1 X17.828 Y1.511 E9.42041
G1 X17.693 Y2.572 E9.49046
G1 X17.517 Y3.525 E9.55390
G1 X17.259 Y4.574 E9.62466
G1 X17.043 Y5.285 E9.67327
G1 X16.715 Y6.194 E9.73654
G1 X16.272 Y7.203 E9.80871
G1 X15.809 Y8.087 E9.87405
G1 X15.274 Y8.954 E9.94071
G1 X14.738 Y9.700 E10.00086
G1 X14.140 Y10.422 E10.06224
G1 X13.455 Y11.134 E10.12691
G1 X12.956 Y11.592 E10.17123
G1 X12.199 Y12.202 E10.23492
G1 X11.438 Y12.722 E10.29526
G1 X10.863 Y13.065 E10.33911
G1 X10.028 Y13.492 E10.40047
G1 X9.186 Y13.842 E10.46022
G1 X8.454 Y14.089 E10.51078
G1 X7.740 Y14.280 E10.55918
G1 X7.223 Y14.391 E10.59377
G1 X6.463 Y14.510 E10.64413
G1 X5.844 Y14.569 E10.68485
G1 X5.057 Y14.601 E10.73638
G1 X0.060 Y14.601 E11.06356
G1 X0.060 Y14.065 F7800.000
G1 F1800
G1 X-5.134 Y14.064 E11.40361
G1 X-5.916 Y14.027 E11.45486
G1 X-6.510 Y13.963 E11.49398
G1 X-7.541 Y13.777 E11.56255
G1 X-8.209 Y13.603 E11.60776
G1 X-8.715 Y13.443 E11.64247
G1 X-9.784 Y13.014 E11.71793
G1 X-10.729 Y12.526 E11.78756
G1 X-11.162 Y12.263 E11.82069
G1 X-11.790 Y11.838 E11.87038
G1 X-12.183 Y11.538 E11.90274
G1 X-12.745 Y11.066 E11.95078
G1 X-13.608 Y10.213 E12.03018
G1 X-14.381 Y9.284 E12.10935
G1 X-14.801 Y8.697 E12.15658
G1 X-15.216 Y8.038 E12.20755
G1 X-15.448 Y7.634 E12.23806
G1 X-15.784 Y6.981 E12.28614
G1 X-16.278 Y5.839 E12.36763
G1 X-16.545 Y5.084 E12.42004
G1 X-16.708 Y4.555 E12.45631
G1 X-17.011 Y3.325 E12.53923
G1 X-17.163 Y2.500 E12.59412
G1 X-17.282 Y1.588 E12.65433
G1 X-17.369 Y0.331 E12.73688
G1 X-17.380 Y-0.504 E12.79156
G1 X-17.353 Y-1.312 E12.84445
G1 X-17.296 Y-2.081 E12.89493
G1 X-17.190 Y-2.956 E12.95262
G1 X-17.044 Y-3.802 E13.00886
G1 X-16.872 Y-4.574 E13.06064
G1 X-16.512 Y-5.817 E13.14537
G1 X-16.242 Y-6.565 E13.19741
G1 X-15.928 Y-7.308 E13.25023
G1 X-15.561 Y-8.056 E13.30478
G1 X-15.194 Y-8.707 E13.35371
G1 X-14.934 Y-9.127 E13.38603
G1 X-14.494 Y-9.765 E13.43679
G1 X-13.990 Y-10.409 E13.49029
G1 X-13.507 Y-10.952 E13.53791
G1 X-13.149 Y-11.319 E13.57146
G1 X-12.633 Y-11.797 E13.61753
G1 X-12.251 Y-12.116 E13.65013
G1 X-11.640 Y-12.578 E13.70023
G1 X-11.055 Y-12.964 E13.74616
G1 X-10.589 Y-13.236 E13.78143
G1 X-9.925 Y-13.581 E13.83042
G1 X-9.233 Y-13.881 E13.87984
G1 X-8.719 Y-14.073 E13.91575
G1 X-8.050 Y-14.281 E13.96164
G1 X-7.313 Y-14.460 E14.01129
G1 X-6.551 Y-14.590 E14.06191
G1 X-5.986 Y-14.654 E14.09913
G1 X-5.265 Y-14.693 E14.14637
G1 X5.127 Y-14.696 E14.82671
G1 X6.145 Y-14.640 E14.89349
G1 X7.109 Y-14.499 E14.95728
G1 X7.945 Y-14.310 E15.01341
G1 X8.876 Y-14.019 E15.07725
G1 X9.641 Y-13.710 E15.13123
G1 X10.169 Y-13.460 E15.16950
G1 X10.880 Y-13.071 E15.22260
G1 X11.552 Y-12.639 E15.27490
G1 X12.229 Y-12.133 E15.33018
G1 X12.650 Y-11.782 E15.36608
G1 X13.242 Y-11.228 E15.41915
G1 X13.766 Y-10.667 E15.46943
G1 X14.118 Y-10.252 E15.50508
G1 X14.620 Y-9.590 E15.55944
G1 X15.068 Y-8.917 E15.61239
G1 X15.492 Y-8.185 E15.66775
G1 X15.898 Y-7.374 E15.72712
G1 X16.181 Y-6.717 E15.77398
G1 X16.494 Y-5.868 E15.83321
G1 X16.644 Y-5.401 E15.86533
G1 X16.887 Y-4.507 E15.92600
G1 X17.039 Y-3.825 E15.97174
G1 X17.158 Y-3.154 E16.01634
G1 X17.292 Y-2.123 E16.08438
G1 X17.357 Y-1.253 E16.14153
G1 X17.381 Y-0.426 E16.19568
G1 X17.357 Y0.615 E16.26385
G1 X17.282 Y1.588 E16.32776
G1 X17.125 Y2.724 E16.40287
G1 X16.934 Y3.681 E16.46675
G1 X16.614 Y4.871 E16.54738
G1 X16.273 Y5.853 E16.61542
G1 X15.896 Y6.744 E16.67881
G1 X15.398 Y7.725 E16.75085
G1 X14.892 Y8.558 E16.81466
G1 X14.362 Y9.311 E16.87491
G1 X13.833 Y9.959 E16.92969
G1 X13.381 Y10.451 E16.97342
G1 X12.664 Y11.137 E17.03835
G1 X11.951 Y11.719 E17.09867
G1 X11.200 Y12.239 E17.15846
G1 X10.638 Y12.577 E17.20140
G1 X9.830 Y12.993 E17.26088
G1 X9.011 Y13.336 E17.31897
G1 X8.325 Y13.569 E17.36647
G1 X7.631 Y13.755 E17.41350
G1 X7.137 Y13.862 E17.44657
G1 X6.402 Y13.978 E17.49531
G1 X5.813 Y14.034 E17.53404
G1 X5.049 Y14.065 E17.58408
G1 X0.120 Y14.065 E17.90677
G1 E13.90677 F2400.00000
G92 E0
G1 Z2.300 F7800.000
G1 X-0.143 Y10.906 F7800.000
G1 Z0.300 F7800.000
G1 E4.00000 F2400.00000
G1 F1800
G1 X-0.860 Y11.284 E4.05305
G1 X-1.701 Y11.637 E4.11275
G1 X-2.591 Y11.918 E4.17388
G1 X-3.206 Y12.056 E4.21516
G1 X-4.140 Y12.186 E4.27688
G1 X-4.926 Y12.226 E4.32840
G1 X-5.824 Y12.190 E4.38721
G1 X-6.793 Y12.056 E4.45129
G1 X-7.658 Y11.846 E4.50957
G1 X-8.408 Y11.597 E4.56129
G1 X-9.103 Y11.302 E4.61074
G1 X-9.952 Y10.850 E4.67374
G1 X-10.785 Y10.294 E4.73930
G1 X-11.442 Y9.762 E4.79460
G1 X-12.117 Y9.112 E4.85597
G1 X-12.416 Y8.784 E4.88501
G1 X-12.866 Y8.238 E4.93134
G1 X-13.328 Y7.588 E4.98352
G1 X-13.808 Y6.797 E5.04410
G1 X-14.255 Y5.907 E5.10937
G1 X-14.597 Y5.082 E5.16777
G1 X-14.931 Y4.078 E5.23710
G1 X-15.187 Y3.064 E5.30553
G1 X-15.356 Y2.145 E5.36674
G1 X-15.468 Y1.233 E5.42690
G1 X-15.529 Y0.320 E5.48679
G1 X-15.539 Y-0.600 E5.54700
G1 X-15.466 Y-1.888 E5.63149
G1 X-15.352 Y-2.796 E5.69141
G1 X-15.235 Y-3.465 E5.73584
G1 X-15.077 Y-4.168 E5.78300
G1 X-14.846 Y-4.991 E5.83901
G1 X-14.568 Y-5.793 E5.89457
G1 X-14.301 Y-6.441 E5.94042
G1 X-13.998 Y-7.072 E5.98631
G1 X-13.462 Y-8.018 E6.05745
G1 X-13.041 Y-8.636 E6.10640
G1 X-12.630 Y-9.167 E6.15036
G1 X-11.880 Y-9.988 E6.22320
G1 X-11.402 Y-10.432 E6.26587
G1 X-10.715 Y-10.978 E6.32334
G1 X-10.164 Y-11.350 E6.36684
G1 X-9.802 Y-11.570 E6.39460
G1 X-9.182 Y-11.899 E6.44056
G1 X-8.830 Y-12.058 E6.46580
G1 X-8.353 Y-12.255 E6.49962
G1 X-7.555 Y-12.509 E6.55444
G1 X-6.817 Y-12.683 E6.60409
G1 X-5.832 Y-12.820 E6.66923
G1 X-4.910 Y-12.857 E6.72962
G1 X-3.889 Y-12.794 E6.79656
G1 X-3.080 Y-12.669 E6.85019
G1 X-2.485 Y-12.520 E6.89033
G1 X-1.943 Y-12.357 E6.92739
G1 X-1.065 Y-12.013 E6.98915
G1 X-0.139 Y-11.538 E7.05728
G1 X0.138 Y-11.538 E7.07542
G1 X1.041 Y-12.002 E7.14186
G1 X1.943 Y-12.357 E7.20533
G1 X2.265 Y-12.459 E7.22747
G1 X3.214 Y-12.690 E7.29142
G1 X4.189 Y-12.824 E7.35582
G1 X5.173 Y-12.857 E7.42032
G1 X6.167 Y-12.787 E7.48549
G1 X6.747 Y-12.696 E7.52398
G1 X7.256 Y-12.587 E7.55805
G1 X8.278 Y-12.279 E7.62791
G1 X9.229 Y-11.875 E7.69560
G1 X9.804 Y-11.568 E7.73823
G1 X10.230 Y-11.308 E7.77094
G1 X10.676 Y-11.006 E7.80619
G1 X11.196 Y-10.605 E7.84919
G1 X11.433 Y-10.404 E7.86953
G1 X12.065 Y-9.801 E7.92671
G1 X12.502 Y-9.320 E7.96926
G1 X12.800 Y-8.953 E8.00017
G1 X13.091 Y-8.567 E8.03182
G1 X13.461 Y-8.018 E8.07519
G1 X13.998 Y-7.072 E8.14638
G1 X14.293 Y-6.460 E8.19090
G1 X14.566 Y-5.798 E8.23774
G1 X14.791 Y-5.165 E8.28173
G1 X15.045 Y-4.296 E8.34101
G1 X15.276 Y-3.241 E8.41172
G1 X15.379 Y-2.614 E8.45331
G1 X15.466 Y-1.888 E8.50120
G1 X15.524 Y-1.064 E8.55531
G1 X15.541 Y-0.389 E8.59951
G1 X15.521 Y0.507 E8.65817
G1 X15.468 Y1.232 E8.70579
G1 X15.323 Y2.349 E8.77953
G1 X15.186 Y3.066 E8.82728
G1 X14.969 Y3.940 E8.88624
G1 X14.815 Y4.455 E8.92143
G1 X14.597 Y5.082 E8.96494
G1 X14.151 Y6.133 E9.03967
G1 X13.808 Y6.798 E9.08865
G1 X13.587 Y7.175 E9.11720
G1 X13.258 Y7.694 E9.15747
G1 X12.941 Y8.137 E9.19313
G1 X12.195 Y9.032 E9.26945
G1 X11.667 Y9.563 E9.31842
G1 X11.352 Y9.841 E9.34593
G1 X10.589 Y10.435 E9.40930
G1 X9.952 Y10.850 E9.45904
G1 X9.304 Y11.204 E9.50739
G1 X8.408 Y11.597 E9.57144
G1 X7.815 Y11.801 E9.61247
G1 X6.972 Y12.027 E9.66962
G1 X6.182 Y12.152 E9.72202
G1 X5.215 Y12.223 E9.78549
G1 X4.285 Y12.198 E9.84636
G1 X3.394 Y12.089 E9.90513
G1 X2.408 Y11.868 E9.97130
G1 X1.700 Y11.637 E10.02002
G1 X1.031 Y11.366 E10.06733
G1 X0.149 Y10.909 E10.13237
G1 X-0.083 Y10.906 E10.14757
G1 X0.147 Y10.282 F7800.000
G1 F1800
G1 X-0.159 Y10.285 E10.16758
G1 X-0.592 Y10.545 E10.20068
G1 X-1.303 Y10.900 E10.25270
G1 X-1.880 Y11.133 E10.29339
G1 X-2.425 Y11.315 E10.33105
G1 X-3.311 Y11.531 E10.39074
G1 X-4.193 Y11.653 E10.44903
G1 X-5.214 Y11.687 E10.51593
G1 X-6.107 Y11.622 E10.57456
G1 X-7.004 Y11.465 E10.63412
G1 X-7.659 Y11.289 E10.67857
G1 X-8.021 Y11.169 E10.70353
G1 X-8.875 Y10.818 E10.76396
G1 X-9.507 Y10.488 E10.81064
G1 X-9.890 Y10.257 E10.83993
G1 X-10.284 Y9.995 E10.87088
G1 X-10.693 Y9.688 E10.90438
G1 X-11.239 Y9.226 E10.95122
G1 X-11.733 Y8.738 E10.99668
G1 X-12.372 Y8.000 E11.06058
G1 X-12.921 Y7.230 E11.12247
G1 X-13.275 Y6.653 E11.16679
G1 X-13.620 Y5.997 E11.21535
G1 X-14.050 Y5.015 E11.28554
G1 X-14.417 Y3.928 E11.36063
G1 X-14.662 Y2.955 E11.42631
G1 X-14.797 Y2.246 E11.47357
G1 X-14.917 Y1.361 E11.53202
G1 X-14.994 Y0.304 E11.60144
G1 X-15.005 Y-0.412 E11.64834
G1 X-14.989 Y-1.044 E11.68973
G1 X-14.933 Y-1.836 E11.74166
G1 X-14.848 Y-2.546 E11.78847
G1 X-14.709 Y-3.360 E11.84255
G1 X-14.556 Y-4.042 E11.88834
G1 X-14.273 Y-5.023 E11.95514
G1 X-14.066 Y-5.606 E11.99567
G1 X-13.811 Y-6.225 E12.03952
G1 X-13.388 Y-7.083 E12.10216
G1 X-13.010 Y-7.729 E12.15113
G1 X-12.679 Y-8.220 E12.18989
G1 X-12.379 Y-8.622 E12.22276
G1 X-11.988 Y-9.091 E12.26269
G1 X-11.506 Y-9.604 E12.30880
G1 X-11.048 Y-10.030 E12.34974
G1 X-10.191 Y-10.693 E12.42072
G1 X-9.731 Y-10.990 E12.45655
G1 X-9.129 Y-11.323 E12.50158
G1 X-8.625 Y-11.563 E12.53814
G1 X-8.163 Y-11.753 E12.57081
G1 X-7.196 Y-12.051 E12.63707
G1 X-6.718 Y-12.156 E12.66910
G1 X-5.952 Y-12.272 E12.71987
G1 X-5.539 Y-12.304 E12.74698
G1 X-4.917 Y-12.321 E12.78772
G1 X-3.955 Y-12.262 E12.85082
G1 X-3.186 Y-12.144 E12.90172
G1 X-2.639 Y-12.006 E12.93865
G1 X-2.118 Y-11.850 E12.97430
G1 X-1.287 Y-11.525 E13.03267
G1 X-0.716 Y-11.245 E13.07430
G1 X-0.152 Y-10.913 E13.11715
G1 X0.152 Y-10.913 E13.13710
G1 X0.718 Y-11.246 E13.18006
G1 X1.549 Y-11.638 E13.24018
G1 X2.414 Y-11.944 E13.30029
G1 X3.003 Y-12.099 E13.34019
G1 X3.440 Y-12.185 E13.36932
G1 X4.230 Y-12.290 E13.42152
G1 X5.159 Y-12.321 E13.48237
G1 X6.097 Y-12.256 E13.54392
G1 X6.872 Y-12.126 E13.59537
G1 X7.311 Y-12.021 E13.62492
G1 X7.895 Y-11.844 E13.66486
G1 X8.330 Y-11.684 E13.69518
G1 X8.992 Y-11.395 E13.74249
G1 X9.542 Y-11.101 E13.78328
G1 X10.180 Y-10.700 E13.83266
G1 X10.461 Y-10.497 E13.85534
G1 X11.076 Y-10.004 E13.90698
G1 X11.508 Y-9.602 E13.94558
G1 X12.214 Y-8.829 E14.01412
G1 X12.652 Y-8.259 E14.06121
G1 X13.010 Y-7.730 E14.10302
G1 X13.518 Y-6.834 E14.17047
G1 X13.803 Y-6.243 E14.21342
G1 X14.064 Y-5.611 E14.25817
G1 X14.347 Y-4.793 E14.31480
G1 X14.575 Y-3.962 E14.37126
G1 X14.702 Y-3.400 E14.40896
G1 X14.823 Y-2.710 E14.45483
G1 X14.933 Y-1.836 E14.51253
G1 X14.993 Y-0.934 E14.57170
G1 X14.994 Y0.305 E14.65280
G1 X14.935 Y1.186 E14.71064
G1 X14.825 Y2.071 E14.76896
G1 X14.662 Y2.957 E14.82798
G1 X14.415 Y3.933 E14.89389
G1 X14.093 Y4.900 E14.96062
G1 X13.765 Y5.691 E15.01668
G1 X13.337 Y6.541 E15.07899
G1 X12.920 Y7.232 E15.13184
G1 X12.441 Y7.911 E15.18621
G1 X12.009 Y8.436 E15.23077
G1 X11.300 Y9.172 E15.29767
G1 X11.010 Y9.428 E15.32298
G1 X10.284 Y9.995 E15.38328
G1 X9.507 Y10.488 E15.44354
G1 X8.875 Y10.818 E15.49023
G1 X8.021 Y11.169 E15.55064
G1 X7.515 Y11.330 E15.58540
G1 X6.861 Y11.502 E15.62970
G1 X6.257 Y11.599 E15.66973
G1 X5.796 Y11.655 E15.70012
G1 X4.927 Y11.690 E15.75711
G1 X4.148 Y11.648 E15.80816
G1 X3.677 Y11.591 E15.83921
G1 X3.210 Y11.508 E15.87030
G1 X2.554 Y11.352 E15.91443
G1 X1.661 Y11.050 E15.97615
G1 X0.945 Y10.728 E16.02754
G1 X0.525 Y10.511 E16.05846
G1 X0.198 Y10.313 E16.08351
G1 X0.163 Y9.648 F7800.000
G1 F1800
G1 X-0.163 Y9.648 E16.10491
G1 X-0.848 Y10.074 E16.15767
G1 X-1.520 Y10.410 E16.20690
G1 X-2.059 Y10.628 E16.24493
G1 X-2.853 Y10.879 E16.29947
G1 X-3.697 Y11.054 E16.35589
G1 X-4.246 Y11.120 E16.39208
G1 X-4.939 Y11.155 E16.43748
G1 X-5.739 Y11.122 E16.48992
G1 X-6.038 Y11.091 E16.50960
G1 X-6.880 Y10.943 E16.56559
G1 X-7.372 Y10.814 E16.59890
G1 X-7.842 Y10.664 E16.63119
G1 X-8.647 Y10.333 E16.68813
G1 X-9.247 Y10.020 E16.73250
G1 X-9.597 Y9.808 E16.75926
G1 X-9.979 Y9.554 E16.78929
G1 X-10.356 Y9.272 E16.82013
G1 X-10.877 Y8.831 E16.86482
G1 X-11.350 Y8.364 E16.90830
G1 X-12.016 Y7.586 E16.97538
G1 X-12.374 Y7.090 E17.01542
G1 X-12.585 Y6.756 E17.04126
G1 X-12.810 Y6.388 E17.06955
G1 X-13.142 Y5.755 E17.11632
G1 X-13.550 Y4.822 E17.18297
G1 X-13.902 Y3.778 E17.25512
G1 X-14.138 Y2.846 E17.31805
G1 X-14.269 Y2.154 E17.36419
G1 X-14.385 Y1.300 E17.42059
G1 X-14.458 Y0.288 E17.48704
G1 X-14.470 Y-0.413 E17.53295
G1 X-14.454 Y-1.019 E17.57262
G1 X-14.400 Y-1.783 E17.62277
G1 X-14.317 Y-2.473 E17.66823
G1 X-14.184 Y-3.255 E17.72019
G1 X-14.035 Y-3.917 E17.76462
G1 X-13.766 Y-4.850 E17.82818
G1 X-13.564 Y-5.419 E17.86771
G1 X-13.321 Y-6.010 E17.90955
G1 X-12.919 Y-6.823 E17.96892
G1 X-12.559 Y-7.441 E18.01575
G1 X-12.239 Y-7.915 E18.05321
G1 X-11.955 Y-8.294 E18.08422
G1 X-11.592 Y-8.731 E18.12140
G1 X-11.133 Y-9.220 E18.16533
G1 X-10.694 Y-9.627 E18.20453
G1 X-9.889 Y-10.250 E18.27115
G1 X-9.452 Y-10.533 E18.30521
G1 X-8.880 Y-10.849 E18.34801
G1 X-8.419 Y-11.068 E18.38143
G1 X-7.974 Y-11.252 E18.41295
G1 X-7.066 Y-11.531 E18.47514
G1 X-6.620 Y-11.630 E18.50506
G1 X-5.895 Y-11.739 E18.55306
G1 X-4.924 Y-11.786 E18.61672
G1 X-4.020 Y-11.730 E18.67598
G1 X-3.293 Y-11.618 E18.72416
G1 X-2.292 Y-11.343 E18.79210
G1 X-1.510 Y-11.038 E18.84709
G1 X-0.964 Y-10.771 E18.88685
G1 X-0.152 Y-10.283 E18.94885
G1 X0.152 Y-10.283 E18.96880
G1 X0.966 Y-10.771 E19.03092
G1 X1.748 Y-11.141 E19.08755
G1 X2.563 Y-11.429 E19.14413
G1 X3.406 Y-11.636 E19.20096
G1 X4.272 Y-11.756 E19.25819
